X:1
T:Intercessio nos - Anon.
T:#
%%score [ 1 2 3 4 ]
L:1/8
Q:1/4=200
M:none
K:C
V:1 treble nm="Soprano" snm="S"
V:2 treble nm="Alto" snm="A"
V:3 treble-8 nm="Tenor" snm="T"
V:4 bass nm="Bass" snm="B"
V:1
"^Intercessio nos""^Anonymous" E8 E8 | A6 A2 A4 G4 | c8 B8 | A4 c8 (B2 A2) | G16 | %5
w: In- ter-|ces- si- o nos,|quae- su-|mus Do- mi\- *|ne,|
[M:4/2] z8 E6 E2 | E4 c4 c4 B4 | c4 c6 B2 A4- | A4 ^G4 A8 | z4 B4 c4 A4 | (c8 B8) | z16 | E16 | %13
w: in- ter-|ces- si- o nos,|quae- su- mus Do\-|* mi- ne,|be- a- ti|N. *||Ab-|
 F8 E4 c4- | c4 (B2 A2 B8 | A6 G2 A2 B2 c4- | c4 B4) c8 | z16 | z8 z4 G4- | G4 A4 B4 c4 | %20
w: ba- tis com\-|* men\- * *||* * det:||ut|* quod no- stris|
 A4 A4 G4 E4- | E4 F4 D8 | E8 z8 | A12 A4 | A4 A4 G8- | G4 G4 (F6 G2 | A4 B4 c4) c4- | %27
w: me- ri- tis non|* va- le-|mus,|e- ius|pa- tro- ci\-|* ni- o, *|* * * e\-|
 c4 c4 c4 c4 | B12 B4 | A8 z8 |[Q:1/4=197] A6[Q:1/4=194] B2[Q:1/4=192] (c4[Q:1/4=188] B4- | %31
w: * ius pa- tro-|ci- ni-|o|as- se- qua\- *|
[Q:1/4=186] B2[Q:1/4=185] A2[Q:1/4=181] A8[Q:1/4=177] ^G2[Q:1/4=176] ^F2 | %32
w: |
[Q:1/4=172] ^G8)[Q:1/4=170] A16 |] %33
w: * mur.|
V:2
 A,6 B,2 C4 A,4- | A,4 (D6 C2 B,2 A,2) | G,4 A,8 ^G,4 | A,4 E4 E8 | E6 E2 D6 C2 | %5
w: In- ter- ces- si\-|* o * * *|nos, quae- su-|mus, in- ter-|ces- si- o nos,|
[M:4/2] B,4 A,4 B,8 | (C6 D2 E8- | E8) A,8 | B,8 z4 E4 | E4 E4 E8 | E8 z4 F4 | A4 F4 (G2 A4 ^G^F | %12
w: quae- su- mus|Do\- * *|* mi-|ne, be-|a- ti N.|* be-|a- ti N. * * *|
 ^G2 A4 G2 A8) | z8 z4 E4- | E4 (D2 C2) (E6 D2 | E4) F8 E4 | G8 z4 G4- | G4 F4 G4 A4 | %18
w: |Ab\-|* ba\- * tis *|* com- men-|det: ut|* quod no- stris|
 F4 F4 (E6 F2 | G4) (F6 E2 E4- | E4) D4 E8 | A,4 (F6 E2 D4- | D4) (C2 D2 E2 F2 E4-) | (E4 D4 E8) | %24
w: me- ri- tis, *|* me\- * *|* ri- tis|non va\- * *|* le\- * * * *||
 (A,6 B,2 C8) | z16 | z16 | E12 E4 | E4 E4 D8- | D4 D4 C8 | F4 F4 E8- | E16 | E8 ^C16 |] %33
w: mus, * *|||e- ius|pa- tro- ci\-|* ni- o|as- se- qua\-||* mur.|
V:3
 z16 | z16 | E8 E8 | A6 A2 A4 G4 | (c8 B6) A2 |[M:4/2][K:treble-8] G4 A8 ^G4 | A8 z8 | %7
w: ||In- ter-|ces- si- o nos,|quae\- * su-|mus Do- mi-|ne,|
 z4 e4 e4 d4 | (e6 d2 c2 B2 A4- | A4 ^G4 A8) | z8 B4 d4 | A4 (c8 B2 A2 | B8 A8- | A8) z4 E4 | %14
w: be- a- ti|N. * * * *||be- a-|ti N. * *||* Ab-|
 A8 ^G4 G4 | (c6 B2 A8) | G8 c4 e4- | (e4 d6 c2 c4- | c4 B4) c8 | z16 | A8 B4 c4- | c4 d4 _B4 B4 | %22
w: ba- tis com-|men\- * *|det, com- men\-||* * det:||ut quod no\-|* stris me- ri-|
 A4 A4 G8 | F8 E8 | e12 e4 | e4 e4 d8- | d4 d4 c8 | z16 | z8 G8 | A8 (G4 e4 | d2 c2 B2 A2 G6 A2 | %31
w: tis non va-|le- mus,|e- ius|pa- tro- ci\-|* ni- o||as-|se- qua\- *||
 B4 c8 B2 A2 | B8) A16 |] %33
w: |* mur.|
V:4
 z16 | z16 | z16 | z16 | z16 |[M:4/2] E,8 E,8 | A,6 A,2 A,4 ^G,4 | A,8 F,8 | %8
w: |||||In- ter-|ces- si- o nos,|quae- su-|
 E,8 (A,,2 B,,2 C,2 D,2 | E,4) E,4 A,,8 | z4 E,4 G,4 D,4 | (F,8 E,8- | E,8) z4 A,,4 | D,8 C,4 C,4 | %14
w: mus Do\- * * *|* mi- ne,|be- a- ti|N. *|* Ab-|ba- tis com-|
 (F,8 E,8) | A,,8 z8 | z8 z4 C,4- | C,4 D,4 E,4 F,4 | D,4 D,4 C,4 E,4- | E,4 F,4 G,4 A,4 | %20
w: men\- *|det:|ut|* quod no- stris|me- ri- tis, ut|* quod no- stris|
 F,4 F,4 E,8 | z16 | A,,8 C,8 | D,8 A,,8- | A,,8 z8 | z16 | z8 A,8- | A,4 A,4 A,4 A,4 | G,12 G,4 | %29
w: me- ri- tis||non va-|le- mus|||e\-|* ius pa- tro-|ci- ni-|
 F,8 C,8 | D,8 E,8- | E,16 | E,8 A,,16 |] %33
w: o as-|se- qua\-||* mur.|

